images/facebook.svg

<?xml version="1.0" standalone="no"?>
<!DOCTYPE svg PUBLIC "-//W3C//DTD SVG 1.0//EN" "http://www.w3.org/TR/2001/REC-SVG-20010904/DTD/svg10.dtd">
<svg xmlns="http://www.w3.org/2000/svg" xmlns:xlink="http://www.w3.org/1999/xlink" id="body_1" width="156" height="156">

<g transform="matrix(0.5032258 0 0 0.5032258 0 0)">
	<g>
	</g>
	<g>
	</g>
	<g>
		<g>
            <path d="M81.703 165.106L115.684006 165.106L115.684006 305C 115.684006 307.762 117.922005 310 120.684006 310L120.684006 310L178.3 310C 181.062 310 183.3 307.762 183.3 305L183.3 305L183.3 165.765L222.364 165.765C 224.90399 165.765 227.041 163.859 227.331 161.336L227.331 161.336L233.26399 109.834C 233.42699 108.417 232.978 106.998 232.03 105.935C 231.081 104.870995 229.72299 104.262 228.298 104.262L228.298 104.262L183.302 104.262L183.302 71.978C 183.302 62.245995 188.542 57.310997 198.878 57.310997C 200.35101 57.310997 228.298 57.310997 228.298 57.310997C 231.06 57.310997 233.298 55.072 233.298 52.310997L233.298 52.310997L233.298 5.037C 233.298 2.275 231.06 0.03700018 228.298 0.03700018L228.298 0.03700018L187.753 0.03700018C 187.467 0.023 186.832 0 185.896 0C 178.861 0 154.40799 1.381 135.092 19.151C 113.689995 38.843 116.66499 62.420998 117.37599 66.509L117.37599 66.509L117.37599 104.261L81.703 104.261C 78.941 104.261 76.703 106.499 76.703 109.261L76.703 109.261L76.703 160.10501C 76.703 162.867 78.941 165.106 81.703 165.106z" stroke="#FAFAFA" stroke-width="1" fill="#FAFAFA" fill-rule="nonzero" />
		</g>
	</g>
</g>
</svg>

<!DOCTYPE svg PUBLIC "-//W3C//DTD SVG 1.1//EN" "http://www.w3.org/Graphics/SVG/1.1/DTD/svg11.dtd">
<!-- Uploaded to: SVG Repo, www.svgrepo.com, Transformed by: SVG Repo Mixer Tools -->
<svg fill="#fcfcfc" height="800px" width="800px" version="1.1" id="Layer_1" xmlns="http://www.w3.org/2000/svg" xmlns:xlink="http://www.w3.org/1999/xlink" viewBox="0 0 310 310" xml:space="preserve" stroke="#fcfcfc">
<g id="SVGRepo_bgCarrier" stroke-width="0"/>
<g id="SVGRepo_tracerCarrier" stroke-linecap="round" stroke-linejoin="round"/>
<g id="SVGRepo_iconCarrier"> <g id="XMLID_834_"> <path id="XMLID_835_" d="M81.703,165.106h33.981V305c0,2.762,2.238,5,5,5h57.616c2.762,0,5-2.238,5-5V165.765h39.064 c2.54,0,4.677-1.906,4.967-4.429l5.933-51.502c0.163-1.417-0.286-2.836-1.234-3.899c-0.949-1.064-2.307-1.673-3.732-1.673h-44.996 V71.978c0-9.732,5.24-14.667,15.576-14.667c1.473,0,29.42,0,29.42,0c2.762,0,5-2.239,5-5V5.037c0-2.762-2.238-5-5-5h-40.545 C187.467,0.023,186.832,0,185.896,0c-7.035,0-31.488,1.381-50.804,19.151c-21.402,19.692-18.427,43.27-17.716,47.358v37.752H81.703 c-2.762,0-5,2.238-5,5v50.844C76.703,162.867,78.941,165.106,81.703,165.106z"/> </g> </g>
</svg>
